packages/katcn/src/icons/svg/eclipse-solid.svg

<svg width="24" height="25" viewBox="0 0 24 25" fill="none" xmlns="http://www.w3.org/2000/svg">
<path d="M15.2 3.46802C14.2 3.16802 13.1 2.96802 12 2.96802C6.5 2.96802 2 7.46802 2 12.968C2 18.468 6.5 22.968 12 22.968C13.1 22.968 14.1 22.768 15.2 22.468C19.3 21.068 22 17.268 22 12.968C22 8.66802 19.3 4.86802 15.2 3.46802ZM4 12.968C4 8.66802 7.4 5.16802 11.7 4.96802C9.2 6.86802 7.7 9.76802 7.7 12.968C7.7 16.168 9.2 19.068 11.7 20.968C7.4 20.768 4 17.268 4 12.968Z" fill="black"/>
</svg>

<svg xmlns="http://www.w3.org/2000/svg" fill="none" viewBox="0 0 24 25"><path fill="#000" d="M15.2 3.468c-1-.3-2.1-.5-3.2-.5-5.5 0-10 4.5-10 10s4.5 10 10 10c1.1 0 2.1-.2 3.2-.5 4.1-1.4 6.8-5.2 6.8-9.5s-2.7-8.1-6.8-9.5M4 12.968c0-4.3 3.4-7.8 7.7-8-2.5 1.9-4 4.8-4 8s1.5 6.1 4 8c-4.3-.2-7.7-3.7-7.7-8"/></svg>
